assets/symbols/mulberry/computer_mouse_1.svg

<svg height="850.394" viewBox="0 0 850.394 850.394" width="850.394" xmlns="http://www.w3.org/2000/svg"><path d="m527.52 479.13v283.851c0 18.029-12.72 32.77-28.449 32.77h-302.791c-15.63 0-28.36-14.74-28.36-32.77v-283.851zm-173.04-193.38c87.57 1.9 173.04 41.38 173.04 115.83v77.55h-180.05v-193.48c2.31 0 4.71 0 7.01.1zm-7.01-.1v193.48h-179.55v-77.55c3.71-78.05 91.68-115.93 179.55-115.93z" fill="#ffeec8"/><g fill="none"><g stroke="#000" stroke-width="30.059"><path d="m527.52 479.13v283.851c0 18.029-12.72 32.77-28.449 32.77h-302.791c-15.63 0-28.36-14.74-28.36-32.77v-361.401c3.71-78.05 91.68-115.93 179.55-115.93 2.31 0 4.71 0 7.01.1 87.57 1.9 173.04 41.38 173.04 115.83zm-359.6 0h359.6m-180.05 0v-193.48"/><path d="m354.99 286.55c-.2-.29-.4-.5-.51-.8-26.24-39.77 5.82-103.2 40.68-123.74 43.09-25.55 86.77-20.04 129.95-5.61 45.6 15.13 113.83 28.46 158.609 5.21 38.88-20.24 54.42-73.94 41.99-113.02"/></g><path d="m0 0h850.394v850.394h-850.394z"/></g></svg>

<svg xmlns="http://www.w3.org/2000/svg" width="850.394" height="850.394" viewBox="0 0 850.394 850.394" overflow="visible"><g fill="#ffeec8"><path d="M527.52 479.13v283.851c0 18.029-12.72 32.77-28.449 32.77H196.28c-15.63 0-28.36-14.74-28.36-32.77V479.13h359.6zM354.48 285.75c87.57 1.9 173.04 41.38 173.04 115.83v77.55H347.47V285.65c2.31 0 4.71 0 7.01.1zM347.47 285.65v193.48H167.92v-77.55c3.71-78.05 91.68-115.93 179.55-115.93z"/></g><g fill="none" stroke="#000" stroke-width="30.059"><path d="M527.52 479.13v283.851c0 18.029-12.72 32.77-28.449 32.77H196.28c-15.63 0-28.36-14.74-28.36-32.77V401.58c3.71-78.05 91.68-115.93 179.55-115.93 2.31 0 4.71 0 7.01.1 87.57 1.9 173.04 41.38 173.04 115.83v77.55zM167.92 479.13h359.6M347.47 479.13V285.65"/><path d="M354.99 286.55c-.2-.29-.4-.5-.51-.8-26.24-39.77 5.82-103.2 40.68-123.74 43.09-25.55 86.77-20.04 129.95-5.61 45.6 15.13 113.83 28.46 158.609 5.21 38.88-20.24 54.42-73.94 41.99-113.02"/></g><path fill="none" d="M0 0h850.394v850.394H0z"/></svg>
